icons/3_Generic/Music.svg

<svg width="1024" height="1024" viewBox="0 0 1024 1024" fill="none" xmlns="http://www.w3.org/2000/svg">
<g clip-path="url(#clip0_3_416)">
<path d="M512 1024C794.77 1024 1024 794.77 1024 512C1024 229.23 794.77 0 512 0C229.23 0 0 229.23 0 512C0 794.77 229.23 1024 512 1024Z" fill="#8C72BD"/>
<path d="M708.84 258.971C705.43 256.311 700.99 255.371 696.79 256.421L397.37 331.281C394.337 332.043 391.646 333.796 389.722 336.261C387.798 338.726 386.752 341.763 386.75 344.891V611.821C353.26 583.401 303.07 587.511 274.65 621.001C246.23 654.491 250.34 704.681 283.83 733.101C317.32 761.521 367.51 757.411 395.93 723.921C408.148 709.529 414.844 691.259 414.82 672.381V468.121L686.17 400.281V536.961C652.68 508.541 602.49 512.651 574.07 546.141C545.65 579.631 549.76 629.821 583.25 658.241C616.74 686.661 666.93 682.551 695.35 649.061C707.568 634.669 714.264 616.399 714.24 597.521V270.021C714.24 265.701 712.25 261.611 708.84 258.961V258.971ZM335.29 723.851C306.87 723.851 283.83 700.811 283.83 672.391C283.83 643.971 306.87 620.931 335.29 620.931C363.71 620.931 386.75 643.971 386.75 672.391C386.75 700.811 363.71 723.851 335.29 723.851ZM414.82 439.211V355.841L686.17 288.001V371.371L414.82 439.211ZM634.71 648.991C606.29 648.991 583.25 625.951 583.25 597.531C583.25 569.111 606.29 546.071 634.71 546.071C663.13 546.071 686.17 569.111 686.17 597.531C686.17 625.951 663.13 648.991 634.71 648.991Z" fill="white"/>
</g>
<defs>
<clipPath id="clip0_3_416">
<rect width="1024" height="1024" fill="white"/>
</clipPath>
</defs>
</svg>

<svg xmlns="http://www.w3.org/2000/svg" viewBox="0 0 1024 1024">
   <circle cx="512" cy="512" r="512" style="fill:#6750a4"/>
   <path d="M708.84 258.97c-3.41-2.66-7.85-3.6-12.05-2.55l-299.42 74.86a14.043 14.043 0 0 0-10.62 13.61v266.93c-33.49-28.42-83.68-24.31-112.1 9.18-28.42 33.49-24.31 83.68 9.18 112.1 33.49 28.42 83.68 24.31 112.1-9.18a79.484 79.484 0 0 0 18.89-51.54V468.12l271.35-67.84v136.68c-33.49-28.42-83.68-24.31-112.1 9.18-28.42 33.49-24.31 83.68 9.18 112.1 33.49 28.42 83.68 24.31 112.1-9.18a79.484 79.484 0 0 0 18.89-51.54v-327.5c0-4.32-1.99-8.41-5.4-11.06ZM335.29 723.85c-28.42 0-51.46-23.04-51.46-51.46s23.04-51.46 51.46-51.46 51.46 23.04 51.46 51.46-23.04 51.46-51.46 51.46Zm79.53-284.64v-83.37L686.17 288v83.37l-271.35 67.84Zm219.89 209.78c-28.42 0-51.46-23.04-51.46-51.46s23.04-51.46 51.46-51.46 51.46 23.04 51.46 51.46-23.04 51.46-51.46 51.46Z" style="fill:#fff"/>
</svg>
